X: 1697
T: Tim the Turncoat   #2
R: hornpipe, reel
%S: s:2 b:12(6+6)
B: O'Neill's 1850 #1697
O: Dollard
M: 4/4
L: 1/8
K: G
B>d \
|:  (3gfg b>g e2 d>c | B>cd>B G2G2 |\
[1,3 DGBG DGBG | dcBc A2d2 :|\
[2,4 FGAB cBce | dcAF G2 :|
|: Bc \
|    dcde dBGB | c2Bc AFD2 |\
[1,3 G2Bc defg | agfe dc :|\
[2,4 G2Bc dgfg | ecAF G2 :|
